X:1
T:Angels Adore Him
T:Angels Adore Him
T:Isaac Hickman Meredith
T:Flora Kirkland, 1903
T:Public Domain Courtesy of the Cyber Hymnal™
T:Public Domain Courtesy of the Cyber Hymnal™
C:Isaac Hickman Meredith
Z:Public Domain
Z:Courtesy of the Cyber Hymnal™
%%score ( 1 2 ) ( 3 4 )
L:1/8
Q:1/4=105
M:3/4
K:Ab
V:1 treble 
V:2 treble 
V:3 bass 
V:4 bass 
V:1
 EF AB AF | G2 d4 | EF Gd F[_Fd] | [Ec]6 | EF AB AF | G2 B4 | [B=d][Ac] [GB][FA] [EG][=DF] | %7
w: 1.~O’er the hills in far Ju-|de- a,|Rang the first glad Christ- mas|song;|’Twas a grand an- gel- ic|chor- us,|Shep- herds saw the shin- ing|
w: 2.~Tell a- gain the sweet old|sto- ry,|Of the shep- herds on the|hill,|When the an- gels from the|glo- ry|Sang while all the world was|
w: 3.~An- gels won- dered at His|com- ing,|To this scene of earth- ly|night,|From the fade- less day in|glo- ry,|From His home so won- drous|
 E4 z2 | [Bd][=Ac] [Bd][ce] [Bd][_Ac] | [GB]2 [GB]4 | [Ec][=D=B] [Ec][F=d] [Ec][_DB] | [CA]6 | %12
w: throng.|Glo- ry streamed a- cross the|heav- ens,|Mu- sic e- choed thro’ the|air;|
w: still.|Tell a- gain the sto- ry|won- drous,|Of the In- fant in the|stall,|
w: bright;|An- gels looked in deep a-|maze- ment,|At the man- ger of His|birth,|
 [=B,_FA][B,FA] [B,FA][B,FA] [B,F=B][B,FA] | [CEAc]2 [CEA]2 GF | [CE][CE] [DF]2 [DB]2 | [CEA]6 || %16
w: Christ the Morn- ing Star hath|ris- en! Tell the|tid- ings ev- ery-|where.|
w: Of the guid- ing star a-|bove Him, Shin- ing|o’er the Lord of|all.|
w: Un- der- stand- ing not His|pur- pose, To re-|deem this sin- ful|earth.|
"^Refrain" [Ec]2 [Ac]3 [Fc] | [Ad]2 [Gd]4 | [Fd][Gd] [Ad]2 [Bd]2 | [Ec]6 | [Ec]2 [Ac]3 [ce] | %21
w: |||||
w: An- gels a-|dore Him,|Hark! We seem to|hear|E- choes from|
w: |||||
 [Be]2 [Ge]4 | [F=d][Gd] [Ad]2 [Fd]2 | [Bd]6 | [Ec]2 [Ac]3 [Fc] | [Ad]2 [Gd]4 | %26
w: |||||
w: Heav- en,|An- gel e- choes|clear.|Je- sus the|might- y|
w: |||||
 [Fd][Gd] [Ad]2 [Bd]2 | [Ec]6 | [ce]2 [df]3 [ce] | [B=d]2 [Fd]2 [Gd][Ad] | [ce][Ee] [ce]2 [Bd]2 | %31
w: |||||
w: Came to earth to|bring|Price- less re-|demp- tion Christ our|pro- phet, priest and|
w: |||||
 [Ac]8 |] %32
w: |
w: king!|
w: |
V:2
 x6 | x6 | x6 | x6 | x6 | x6 | x6 | x6 | x6 | x6 | x6 | x6 | x6 | x4 =B,2 | x6 | x6 || x6 | x6 | %18
 x6 | x6 | x6 | x6 | x6 | x6 | x6 | x6 | x6 | x6 | x6 | x6 | x6 | x8 |] %32
V:3
 A,,2 [E,A,C]2 [E,A,C]2 | B,,2 ([E,G,D]2 [E,G,D]2) | B,,2 [E,G,D]2 [E,G,D]2 | %3
 (A,,2 [E,A,C]2 [E,A,C]2) | A,,2 [E,A,C]2 [E,A,C]2 | B,,2 ([G,B,E]2 [G,B,E]2) | %6
 B,,2 [A,B,=D]2 B,A, | ([E,G,]2 .B,,2 .E,,2) | B,,2 [E,G,D]2 [E,G,D]2 | E,,2 ([E,G,D]2 [E,G,D]2) | %10
 A,,2 [E,A,C]2 [E,A,C]2 | (A,,2 [E,A,C]2 [E,A,C]2) | _F,2 F,2 F,2 | E,2 E,2 [=D,A,]2 | %14
 [E,A,]2 [E,G,]2 [E,G,]2 | [A,,A,]6 || A,,2 ([E,A,C]2 [E,A,C]2) | B,,2 ([E,G,D]2 [E,G,D]2) | %18
 E,,2 [E,G,D]2 [E,G,D]2 | (A,,2 [E,A,C]2 [E,A,C]2) | A,,2 ([E,A,C]2 [E,A,C]2) | %21
 G,,2 ([G,B,E]2 [G,B,E]2) | F,,2 [A,B,=D]2 [A,B,D]2 | (E,,2 [E,G,D]2 [E,G,D]2) | %24
 A,,2 ([E,A,C]2 [E,A,C]2) | B,,2 ([E,G,D]2 [E,G,D]2) | E,,2 [E,G,D]2 [E,G,D]2 | %27
 (A,,2 [E,A,C]2 [E,A,C]2) | A,,2 [E,A,C]2 [E,A,C]2 | B,,2 [A,B,=D]2 [A,B,D]2 | %30
 E,,2 [E,A,C]2 [E,G,D]2 | [A,,A,]8 |] %32
V:4
 x6 | x6 | x6 | x6 | x6 | x6 | x4 B,,2 | x6 | x6 | x6 | x6 | x6 | x6 | x6 | x6 | x6 || x6 | x6 | %18
 x6 | x6 | x6 | x6 | x6 | x6 | x6 | x6 | x6 | x6 | x6 | x6 | x6 | x8 |] %32

